X:1
T:The Longford Tinker
R:reel
M:4/4
L:1/8
K:D
|dBBA ~B2Bc|dB~B2 fBeB|dBBA ~B2dB|ABde ~f2fe|
|dB~B2 fB~B2|dB~B2 ~f2fg|azAF A2AF|ABde ~f2fe|
|d2fd efge|defa ~g2fe|d2fd efge|faaf ~g2fe|
|d2fd efge|defa ~g2ga|~b2af gfed|faaf gfed|
|fa~a2 fa~a2|faaf gfed|gb~b2 gb~b2|gbbf gfed|
|fa~a2 fa~a2|faaf ~g2ga|~b2af gfed|faaf gfef|